X:103
T:Liz Carroll's Fancy 
R:reel
C: 2003, 2010 L.E. McCullough 
M:4/4
L:1/8
K:G
|:D~G3 BGBd|~g3e edB^A|(3Bcd .ee -edB^A|(3Bcd .ee -edBA|
D~G3 BGBd|~g3e edB^A|(3Bcd gf edBA|1 (3Bcd BA ~G3E:|2 (3Bcd BA ~G3A|]
|:B~E3 BEeE|B~E3 (3Bcd fg|B~E3 BEeg|ag (3fga (3gfe (3fed|
B~E3 BEGB|e~g3 a2ga|1 b~g3 ~e3d|eBgB aBgf:|2 b~g3 ~e3g|edB^A (3Bcd B=A|]

